Numix-Light/scalable/actions/document-page-setup-symbolic.svg

<?xml version="1.0" encoding="UTF-8" standalone="no"?>
<svg
   xmlns:dc="http://purl.org/dc/elements/1.1/"
   xmlns:cc="http://creativecommons.org/ns#"
   xmlns:rdf="http://www.w3.org/1999/02/22-rdf-syntax-ns#"
   xmlns:svg="http://www.w3.org/2000/svg"
   xmlns="http://www.w3.org/2000/svg"
   xmlns:sodipodi="http://sodipodi.sourceforge.net/DTD/sodipodi-0.dtd"
   xmlns:inkscape="http://www.inkscape.org/namespaces/inkscape"
   viewBox="0 0 16 16"
   id="svg2180"
   version="1.1"
   inkscape:version="0.91 r"
   sodipodi:docname="document-page-setup-symbolic.svg">
  <metadata
     id="metadata2192">
    <rdf:RDF>
      <cc:Work
         rdf:about="">
        <dc:format>image/svg+xml</dc:format>
        <dc:type
           rdf:resource="http://purl.org/dc/dcmitype/StillImage" />
        <dc:title />
      </cc:Work>
    </rdf:RDF>
  </metadata>
  <defs
     id="defs2190" />
  <sodipodi:namedview
     pagecolor="#ffffff"
     bordercolor="#666666"
     borderopacity="1"
     objecttolerance="10"
     gridtolerance="10"
     guidetolerance="10"
     inkscape:pageopacity="0"
     inkscape:pageshadow="2"
     inkscape:window-width="1920"
     inkscape:window-height="1056"
     id="namedview2188"
     showgrid="true"
     inkscape:zoom="20.85965"
     inkscape:cx="-8.4298382"
     inkscape:cy="-0.94729359"
     inkscape:window-x="0"
     inkscape:window-y="24"
     inkscape:window-maximized="1"
     inkscape:current-layer="svg2180">
    <inkscape:grid
       type="xygrid"
       id="grid4137" />
  </sodipodi:namedview>
  <path
     style="color:#000000;font-style:normal;font-variant:normal;font-weight:normal;font-stretch:normal;font-size:medium;line-height:normal;font-family:sans-serif;text-indent:0;text-align:start;text-decoration:none;text-decoration-line:none;text-decoration-style:solid;text-decoration-color:#000000;letter-spacing:normal;word-spacing:normal;text-transform:none;direction:ltr;block-progression:tb;writing-mode:lr-tb;baseline-shift:baseline;text-anchor:start;white-space:normal;clip-rule:nonzero;display:inline;overflow:visible;visibility:visible;opacity:1;isolation:auto;mix-blend-mode:normal;color-interpolation:sRGB;color-interpolation-filters:linearRGB;solid-color:#000000;solid-opacity:1;fill:#353535;fill-opacity:1;fill-rule:nonzero;stroke:none;stroke-width:1;stroke-linecap:butt;stroke-linejoin:miter;stroke-miterlimit:4;stroke-dasharray:none;stroke-dashoffset:0;stroke-opacity:1;color-rendering:auto;image-rendering:auto;shape-rendering:auto;text-rendering:auto;enable-background:accumulate"
     d="M 2 1 L 2 1.5 L 2 4.9199219 L 3 5.4960938 L 3 2 L 12 2 L 12 10.691406 L 13 11.267578 L 13 1 L 2 1 z M 2 14 L 2 15 L 13 15 L 13 14 L 12 14 L 3 14 L 2 14 z "
     id="rect4135" />
  <path
     style="color:#000000;font-style:normal;font-variant:normal;font-weight:normal;font-stretch:normal;font-size:medium;line-height:normal;font-family:sans-serif;text-indent:0;text-align:start;text-decoration:none;text-decoration-line:none;text-decoration-style:solid;text-decoration-color:#000000;letter-spacing:normal;word-spacing:normal;text-transform:none;direction:ltr;block-progression:tb;writing-mode:lr-tb;baseline-shift:baseline;text-anchor:start;white-space:normal;clip-rule:nonzero;display:inline;overflow:visible;visibility:visible;opacity:1;isolation:auto;mix-blend-mode:normal;color-interpolation:sRGB;color-interpolation-filters:linearRGB;solid-color:#000000;solid-opacity:1;fill:#353535;fill-opacity:1;fill-rule:evenodd;stroke:none;stroke-width:2;stroke-linecap:butt;stroke-linejoin:miter;stroke-miterlimit:4;stroke-dasharray:none;stroke-dashoffset:0;stroke-opacity:1;color-rendering:auto;image-rendering:auto;shape-rendering:auto;text-rendering:auto;enable-background:accumulate"
     d="M 2,6.0742188 2,13 3,13 14,13 2,6.0742188 Z M 4,9.5371094 6.5351562,11 4,11 4,9.5371094 Z"
     id="path4143"
     inkscape:connector-curvature="0" />
</svg>

<svg xmlns="http://www.w3.org/2000/svg" viewBox="0 0 16 16">
 <path d="m 2 1 l 0 0.5 l 0 3.42 l 1 0.576 l 0 -3.496 l 9 0 l 0 8.691 l 1 0.576 l 0 -10.268 l -11 0 z m 0 13 l 0 1 l 11 0 l 0 -1 l -1 0 l -9 0 l -1 0 z" mix-blend-mode="normal" isolation="auto" white-space="normal" solid-opacity="1" solid-color="#000000" style="visibility:visible;shape-rendering:auto;color-interpolation-filters:linearRGB;fill:#353535;opacity:1;image-rendering:auto;fill-opacity:1;stroke:none;display:inline;color:#000;fill-rule:nonzero;color-rendering:auto;color-interpolation:sRGB"/>
 <path d="m 2 6.074 0 6.926 1 0 11 0 -12 -6.926 m 2 3.463 2.535 1.463 -2.535 0 0 -1.463" mix-blend-mode="normal" isolation="auto" white-space="normal" solid-opacity="1" solid-color="#000000" style="visibility:visible;shape-rendering:auto;color-interpolation-filters:linearRGB;fill:#353535;opacity:1;image-rendering:auto;fill-opacity:1;stroke:none;display:inline;color:#000;fill-rule:evenodd;color-rendering:auto;color-interpolation:sRGB"/>
</svg>
